;FLAVOR:UltiGCode
;TIME:3335
;MATERIAL:6464
;MATERIAL2:0
;NOZZLE_DIAMETER:0.600000
;NOZZLE_DIAMETER2:0.600000

;Layer count: 77
;LAYER:0
M107
G0 F7200 X78.226 Y56.818 Z0.260
;TYPE:SKIRT
G1 F1200 X78.942 Y55.833 E0.18997
G1 X79.441 Y55.258 E0.30873
G1 X79.921 Y54.769 E0.41563
G1 X80.459 Y54.284 E0.52863
G1 X81.424 Y53.554 E0.71739
G1 X82.108 Y53.122 E0.84359
G1 X83.193 Y52.569 E1.03357
G1 X83.942 Y52.263 E1.15979
G1 X85.109 Y51.909 E1.35003
G1 X85.901 Y51.739 E1.47640
G1 X87.114 Y51.596 E1.66693
G1 X87.920 Y51.568 E1.79275
G1 X89.139 Y51.638 E1.98322
G1 X89.897 Y51.747 E2.10269
G1 X90.609 Y51.896 E2.21617
G1 X91.770 Y52.245 E2.40529
G1 X92.526 Y52.546 E2.53223
G1 X93.611 Y53.097 E2.72206
G1 X94.298 Y53.522 E2.84809
G1 X95.272 Y54.256 E3.03834
G1 X95.841 Y54.766 E3.15754
G1 X96.318 Y55.251 E3.26366
G1 X96.795 Y55.796 E3.37665
G1 X97.511 Y56.776 E3.56599
G1 X97.930 Y57.467 E3.69205
G1 X98.425 Y58.478 E3.86766
G1 X98.755 Y59.204 E3.99206
G1 X98.755 Y63.601 E4.67800
G1 X121.096 Y85.941 E9.60670
G1 X121.096 Y153.326 E20.11876
G1 X90.013 Y153.326 E24.96770
G1 X90.013 Y99.771 E33.32228
G1 X87.759 Y99.771 E33.67391
G1 X86.331 Y96.323 E34.25610
G1 X82.711 Y94.818 E34.86768
G1 X82.711 Y92.750 E35.19029
G1 X77.011 Y92.750 E36.07949
G1 X77.011 Y59.161 E41.31937
G1 X77.810 Y57.514 E41.60494
G1 X78.226 Y56.818 E41.73144
G10
G0 F7200 X81.738 Y59.130
;TYPE:WALL-INNER
G11
G1 F1200 X82.231 Y58.452 E41.86221
G1 X82.831 Y57.800 E42.00044
G1 X83.135 Y57.526 E42.06428
G1 X83.816 Y57.011 E42.19747
G1 X84.192 Y56.774 E42.26681
G1 X84.941 Y56.392 E42.39797
G1 X85.354 Y56.224 E42.46753
G1 X86.157 Y55.980 E42.59845
G1 X86.589 Y55.887 E42.66739
G1 X87.442 Y55.786 E42.80138
G1 X87.863 Y55.772 E42.86710
G1 X88.722 Y55.821 E43.00132
G1 X89.573 Y55.971 E43.13612
G1 X90.389 Y56.215 E43.26899
G1 X90.795 Y56.377 E43.33718
G1 X91.549 Y56.760 E43.46911
G1 X91.926 Y56.993 E43.53824
G1 X92.596 Y57.498 E43.66913
G1 X93.240 Y58.112 E43.80794
G1 X93.511 Y58.421 E43.87205
G1 X94.017 Y59.115 E44.00604
G1 X94.244 Y59.487 E44.07402
G1 X94.555 Y60.124 E44.18460
G1 X94.555 Y65.340 E44.99830
G1 X116.896 Y87.680 E49.92700
G1 X116.896 Y142.816 E58.52822
G1 X115.382 Y142.816 E58.76440
G1 X115.382 Y147.140 E59.43894
G1 X116.896 Y147.140 E59.67513
G1 X116.896 Y149.126 E59.98494
G1 X94.213 Y149.126 E63.52349
G1 X94.213 Y147.140 E63.83331
G1 X95.728 Y147.140 E64.06965
G1 X95.728 Y142.816 E64.74419
G1 X94.213 Y142.816 E64.98053
G1 X94.213 Y88.550 E73.44603
G1 X81.211 Y88.550 E75.47434
G1 X81.211 Y60.126 E79.90848
G1 X81.508 Y59.515 E80.01446
G1 X81.738 Y59.130 E80.08443
G0 F7200 X85.109 Y59.581
G1 F1200 X85.088 Y59.926 E80.13835
G1 X85.120 Y60.342 E80.20343
G1 X85.282 Y60.941 E80.30023
G1 X85.438 Y61.269 E80.35689
G1 X85.614 Y61.548 E80.40836
G1 X85.797 Y61.780 E80.45445
G1 X86.090 Y62.062 E80.51789
G1 X86.584 Y62.399 E80.61118
G1 X87.188 Y62.628 E80.71195
G1 X87.546 Y62.693 E80.76871
G1 X87.890 Y62.714 E80.82247
G1 X88.306 Y62.682 E80.88756
G1 X88.905 Y62.520 E80.98436
G1 X89.233 Y62.364 E81.04102
G1 X89.512 Y62.188 E81.09248
G1 X89.744 Y62.004 E81.13867
G1 X90.012 Y61.725 E81.19903
G1 X90.214 Y61.456 E81.25150
G1 X90.383 Y61.163 E81.30427
G1 X90.515 Y60.852 E81.35698
G1 X90.657 Y60.257 E81.45240
G1 X90.678 Y59.912 E81.50632
G1 X90.646 Y59.496 E81.57141
G1 X90.484 Y58.897 E81.66821
G1 X90.328 Y58.569 E81.72487
G1 X90.152 Y58.290 E81.77633
G1 X89.968 Y58.058 E81.82252
G1 X89.689 Y57.790 E81.88288
G1 X89.420 Y57.588 E81.93535
G1 X89.127 Y57.419 E81.98812
G1 X88.816 Y57.287 E82.04083
G1 X88.221 Y57.145 E82.13625
G1 X87.876 Y57.124 E82.19017
G1 X87.460 Y57.156 E82.25526
G1 X86.834 Y57.326 E82.35645
G1 X86.276 Y57.634 E82.45588
G1 X86.022 Y57.834 E82.50631
G1 X85.754 Y58.113 E82.56666
G1 X85.552 Y58.382 E82.61914
G1 X85.383 Y58.675 E82.67191
G1 X85.251 Y58.986 E82.72461
G1 X85.109 Y59.581 E82.82004
G0 F7200 X85.746 Y59.438
;TYPE:WALL-OUTER
G1 F1200 X85.706 Y59.654 E82.85431
G1 X85.689 Y59.921 E82.89605
G1 X85.714 Y60.239 E82.94581
G1 X85.847 Y60.732 E83.02547
G1 X85.965 Y60.979 E83.06817
G1 X86.243 Y61.376 E83.14378
G1 X86.470 Y61.595 E83.19298
G1 X86.863 Y61.863 E83.26719
G1 X87.349 Y62.047 E83.34825
G1 X87.619 Y62.096 E83.39106
G1 X87.885 Y62.113 E83.43264
G1 X88.203 Y62.088 E83.48240
G1 X88.696 Y61.955 E83.56206
G1 X88.943 Y61.837 E83.60477
G1 X89.340 Y61.559 E83.68037
G1 X89.554 Y61.336 E83.72859
G1 X89.713 Y61.125 E83.76980
G1 X89.845 Y60.895 E83.81117
G1 X89.948 Y60.651 E83.85249
G1 X90.020 Y60.400 E83.89322
G1 X90.060 Y60.184 E83.92749
G1 X90.077 Y59.917 E83.96923
G1 X90.052 Y59.599 E84.01899
G1 X89.919 Y59.106 E84.09865
G1 X89.801 Y58.859 E84.14135
G1 X89.523 Y58.462 E84.21696
G1 X89.300 Y58.248 E84.26517
G1 X89.089 Y58.089 E84.30639
G1 X88.859 Y57.957 E84.34776
G1 X88.615 Y57.854 E84.38907
G1 X88.364 Y57.782 E84.42981
G1 X88.148 Y57.742 E84.46408
G1 X87.881 Y57.725 E84.50581
G1 X87.563 Y57.750 E84.55557
G1 X87.061 Y57.886 E84.63671
G1 X86.609 Y58.135 E84.71721
G1 X86.426 Y58.279 E84.75354
G1 X86.212 Y58.502 E84.80175
G1 X86.053 Y58.713 E84.84297
G1 X85.921 Y58.943 E84.88434
G1 X85.818 Y59.187 E84.92566
G1 X85.746 Y59.438 E84.96639
G0 F7200 X85.362 Y59.328
G0 X84.091 Y56.601
G0 X83.896 Y56.251
G1 F1200 X84.683 Y55.850 E85.10418
G1 X85.154 Y55.657 E85.18359
G1 X86.013 Y55.397 E85.32359
G1 X86.489 Y55.295 E85.39954
G1 X87.386 Y55.189 E85.54044
G1 X87.876 Y55.172 E85.61693
G1 X88.783 Y55.224 E85.75865
G1 X89.730 Y55.391 E85.90866
G1 X90.577 Y55.645 E86.04661
G1 X91.048 Y55.832 E86.12566
G1 X91.841 Y56.236 E86.26450
G1 X92.263 Y56.497 E86.34191
G1 X92.988 Y57.042 E86.48340
G1 X93.672 Y57.695 E86.63092
G1 X93.986 Y58.053 E86.70521
G1 X94.514 Y58.776 E86.84487
G1 X94.770 Y59.197 E86.92173
G1 X95.155 Y59.985 E87.05855
G1 X95.155 Y65.091 E87.85509
G1 X117.496 Y87.432 E92.78390
G1 X117.496 Y143.416 E101.51740
G1 X115.982 Y143.416 E101.75359
G1 X115.982 Y146.540 E102.24093
G1 X117.496 Y146.540 E102.47711
G1 X117.496 Y149.726 E102.97413
G1 X93.613 Y149.726 E106.69988
G1 X93.613 Y146.540 E107.19689
G1 X95.128 Y146.540 E107.43323
G1 X95.128 Y143.416 E107.92058
G1 X93.613 Y143.416 E108.15692
G1 X93.613 Y89.150 E116.62241
G1 X80.611 Y89.150 E118.65073
G1 X80.611 Y59.988 E123.20000
G1 X80.978 Y59.231 E123.33124
G1 X81.235 Y58.801 E123.40938
G1 X81.760 Y58.080 E123.54852
G1 X82.094 Y57.694 E123.62815
G1 X82.758 Y57.058 E123.77158
G1 X83.471 Y56.520 E123.91092
G1 X83.896 Y56.251 E123.98939
G0 F7200 X84.475 Y56.898
;TYPE:SKIN
G1 F1200 X85.554 Y57.977 E124.22743
G0 F7200 X85.982 Y57.557
G1 F1200 X85.037 Y56.611 E124.43603
G0 F7200 X85.656 Y56.382
G1 F1200 X86.506 Y57.232 E124.62355
G0 F7200 X87.121 Y56.999
G1 F1200 X86.680 Y56.133 E124.80143
G1 X87.855 Y56.884 E125.01897
G0 F7200 X87.833 Y56.014
G1 F1200 X88.872 Y57.052 E125.24809
G0 F7200 X88.734 Y56.066
G1 F1200 X94.314 Y61.646 E126.47913
G0 F7200 X94.314 Y62.494
G1 F1200 X90.736 Y58.916 E127.26850
G0 F7200 X90.915 Y59.944
G1 F1200 X94.314 Y63.343 E128.01838
G0 F7200 X94.314 Y64.191
G1 F1200 X90.802 Y60.679 E128.79319
G0 F7200 X90.578 Y61.304
G1 F1200 X94.314 Y65.040 E129.61741
G0 F7200 X94.314 Y60.797
G1 F1200 X89.809 Y56.292 E130.61129
G0 F7200 X91.236 Y56.871
G1 F1200 X94.095 Y59.730 E131.24204
G0 F7200 X87.877 Y57.225
G0 X86.090 Y57.910
G0 X85.214 Y58.486
G1 F1200 X83.944 Y57.215 E131.52233
G0 F7200 X83.461 Y57.581
G1 F1200 X84.977 Y59.097 E131.85679
G0 F7200 X84.853 Y59.821
G1 F1200 X83.001 Y57.970 E132.26526
G0 F7200 X82.593 Y58.410
G1 F1200 X84.999 Y60.816 E132.79607
G0 F7200 X86.996 Y62.813
G1 F1200 X116.655 Y92.472 E139.33936
G0 F7200 X116.655 Y91.624
G1 F1200 X87.980 Y62.948 E145.66567
G0 F7200 X88.703 Y62.822
G1 F1200 X116.655 Y90.775 E151.83247
G0 F7200 X116.655 Y89.927
G1 F1200 X89.318 Y62.589 E157.86360
G0 F7200 X89.823 Y62.246
G1 F1200 X116.655 Y89.078 E163.78320
G0 F7200 X116.655 Y88.229
G1 F1200 X90.242 Y61.816 E169.61037
G0 F7200 X87.889 Y62.613
G0 X86.154 Y61.983
G0 X81.450 Y61.509
G1 F1200 X116.655 Y96.715 E177.37731
G0 F7200 X116.655 Y97.563
G1 F1200 X81.450 Y62.358 E185.14414
G0 F7200 X81.450 Y63.206
G1 F1200 X116.655 Y98.412 E192.91109
G0 F7200 X116.655 Y99.260
G1 F1200 X81.450 Y64.055 E200.67792
G0 F7200 X81.450 Y64.903
G1 F1200 X116.655 Y100.109 E208.44486
G0 F7200 X116.655 Y100.957
G1 F1200 X81.450 Y65.752 E216.21169
G0 F7200 X81.450 Y66.600
G1 F1200 X116.655 Y101.806 E223.97864
G0 F7200 X116.655 Y102.654
G1 F1200 X81.450 Y67.449 E231.74547
G0 F7200 X81.450 Y68.298
G1 F1200 X116.655 Y103.503 E239.51230
G0 F7200 X116.655 Y104.351
G1 F1200 X81.450 Y69.146 E247.27913
G0 F7200 X81.450 Y69.995
G1 F1200 X116.655 Y105.200 E255.04597
G0 F7200 X116.655 Y106.049
G1 F1200 X81.450 Y70.843 E262.81291
G0 F7200 X81.450 Y71.692
G1 F1200 X116.655 Y106.897 E270.57974
G0 F7200 X116.655 Y107.746
G1 F1200 X81.450 Y72.540 E278.34669
G0 F7200 X81.450 Y73.389
G1 F1200 X116.655 Y108.594 E286.11352
G0 F7200 X116.655 Y109.443
G1 F1200 X81.450 Y74.237 E293.88046
G0 F7200 X81.450 Y75.086
G1 F1200 X116.655 Y110.291 E301.64729
G0 F7200 X116.655 Y111.140
G1 F1200 X94.451 Y88.936 E306.54588
G0 F7200 X94.451 Y89.784
G1 F1200 X116.655 Y111.988 E311.44447
G0 F7200 X116.655 Y112.837
G1 F1200 X94.451 Y90.633 E316.34305
G0 F7200 X94.451 Y91.481
G1 F1200 X116.655 Y113.685 E321.24164
G0 F7200 X116.655 Y114.534
G1 F1200 X94.451 Y92.330 E326.14023
G0 F7200 X94.451 Y93.178
G1 F1200 X116.655 Y115.382 E331.03881
G0 F7200 X116.655 Y116.231
G1 F1200 X94.451 Y94.027 E335.93740
G0 F7200 X94.451 Y94.876
G1 F1200 X116.655 Y117.079 E340.83588
G0 F7200 X116.655 Y117.928
G1 F1200 X94.451 Y95.724 E345.73447
G0 F7200 X94.451 Y96.573
G1 F1200 X116.655 Y118.776 E350.63294
G0 F7200 X116.655 Y119.625
G1 F1200 X94.451 Y97.421 E355.53153
G0 F7200 X94.451 Y98.270
G1 F1200 X116.655 Y120.474 E360.43012
G0 F7200 X116.655 Y121.322
G1 F1200 X94.451 Y99.118 E365.32870
G0 F7200 X94.451 Y99.967
G1 F1200 X116.655 Y122.171 E370.22729
G0 F7200 X116.655 Y123.019
G1 F1200 X94.451 Y100.815 E375.12588
G0 F7200 X94.451 Y101.664
G1 F1200 X116.655 Y123.868 E380.02446
G0 F7200 X116.655 Y124.716
G1 F1200 X94.451 Y102.512 E384.92305
G0 F7200 X94.451 Y103.361
G1 F1200 X116.655 Y125.565 E389.82164
G0 F7200 X116.655 Y126.413
G1 F1200 X94.451 Y104.209 E394.72022
G0 F7200 X94.451 Y105.058
G1 F1200 X116.655 Y127.262 E399.61881
G0 F7200 X116.655 Y128.110
G1 F1200 X94.451 Y105.906 E404.51740
G0 F7200 X94.451 Y106.755
G1 F1200 X116.655 Y128.959 E409.41598
G0 F7200 X116.655 Y129.807
G1 F1200 X94.451 Y107.603 E414.31457
G0 F7200 X94.451 Y108.452
G1 F1200 X116.655 Y130.656 E419.21316
G0 F7200 X116.655 Y131.504
G1 F1200 X94.451 Y109.301 E424.11163
G0 F7200 X94.451 Y110.149
G1 F1200 X116.655 Y132.353 E429.01022
G0 F7200 X116.655 Y133.201
G1 F1200 X94.451 Y110.998 E433.90870
G0 F7200 X94.451 Y111.846
G1 F1200 X116.655 Y134.050 E438.80728
G0 F7200 X116.655 Y134.899
G1 F1200 X94.451 Y112.695 E443.70587
G0 F7200 X94.451 Y113.543
G1 F1200 X116.655 Y135.747 E448.60446
G0 F7200 X116.655 Y136.596
G1 F1200 X94.451 Y114.392 E453.50305
G0 F7200 X94.451 Y115.240
G1 F1200 X116.655 Y137.444 E458.40163
G0 F7200 X116.655 Y138.293
G1 F1200 X94.451 Y116.089 E463.30022
G0 F7200 X94.451 Y116.937
G1 F1200 X116.655 Y139.141 E468.19881
G0 F7200 X116.655 Y139.990
G1 F1200 X94.451 Y117.786 E473.09739
G0 F7200 X94.451 Y118.634
G1 F1200 X116.655 Y140.838 E477.99598
G0 F7200 X116.655 Y141.687
G1 F1200 X94.451 Y119.483 E482.89457
G0 F7200 X94.451 Y120.331
G1 F1200 X116.655 Y142.535 E487.79315
G0 F7200 X115.846 Y142.575
G1 F1200 X94.451 Y121.180 E492.51326
G0 F7200 X94.451 Y122.028
G1 F1200 X115.142 Y142.719 E497.07805
G0 F7200 X115.142 Y143.568
G1 F1200 X94.451 Y122.877 E501.64285
G0 F7200 X94.451 Y123.726
G1 F1200 X115.142 Y144.416 E506.20753
G0 F7200 X115.142 Y145.265
G1 F1200 X94.451 Y124.574 E510.77232
G0 F7200 X94.451 Y125.423
G1 F1200 X115.142 Y146.113 E515.33700
G0 F7200 X115.142 Y146.962
G1 F1200 X94.451 Y126.271 E519.90180
G0 F7200 X94.451 Y127.120
G1 F1200 X116.216 Y148.884 E524.70342
G0 F7200 X116.655 Y148.475
G1 F1200 X115.559 Y147.379 E524.94522
G0 F7200 X116.408 Y147.379
G1 F1200 X116.655 Y147.626 E524.99971
G0 F7200 X115.368 Y148.884
G1 F1200 X94.451 Y127.968 E529.61425
G0 F7200 X94.451 Y128.817
G1 F1200 X114.519 Y148.884 E534.04149
G0 F7200 X113.670 Y148.884
G1 F1200 X94.451 Y129.665 E538.28154
G0 F7200 X94.451 Y130.514
G1 F1200 X112.822 Y148.884 E542.33439
G0 F7200 X111.973 Y148.884
G1 F1200 X94.451 Y131.362 E546.20004
G0 F7200 X94.451 Y132.211
G1 F1200 X111.125 Y148.884 E549.87851
G0 F7200 X110.276 Y148.884
G1 F1200 X94.451 Y133.059 E553.36978
G0 F7200 X94.451 Y133.908
G1 F1200 X109.428 Y148.884 E556.67385
G0 F7200 X108.579 Y148.884
G1 F1200 X94.451 Y134.756 E559.79073
G0 F7200 X94.451 Y135.605
G1 F1200 X107.731 Y148.884 E562.72042
G0 F7200 X106.882 Y148.884
G1 F1200 X94.451 Y136.453 E565.46291
G0 F7200 X94.451 Y137.302
G1 F1200 X106.034 Y148.884 E568.01821
G0 F7200 X105.185 Y148.884
G1 F1200 X94.451 Y138.150 E570.38632
G0 F7200 X94.451 Y138.999
G1 F1200 X104.337 Y148.884 E572.56723
G0 F7200 X103.488 Y148.884
G1 F1200 X94.451 Y139.848 E574.56084
G0 F7200 X94.451 Y140.696
G1 F1200 X102.640 Y148.884 E576.36737
G0 F7200 X101.791 Y148.884
G1 F1200 X95.968 Y143.061 E577.65202
G0 F7200 X95.482 Y142.575
G1 F1200 X94.451 Y141.545 E577.87937
G0 F7200 X94.451 Y142.393
G1 F1200 X94.633 Y142.575 E577.91952
G0 F7200 X95.569 Y142.975
G0 X95.968 Y143.910
G1 F1200 X100.943 Y148.884 E579.01698
G0 F7200 X100.094 Y148.884
G1 F1200 X95.968 Y144.758 E579.92725
G0 F7200 X95.968 Y145.607
G1 F1200 X99.245 Y148.884 E580.65021
G0 F7200 X98.397 Y148.884
G1 F1200 X95.968 Y146.455 E581.18609
G0 F7200 X95.968 Y147.304
G1 F1200 X97.548 Y148.884 E581.53466
G0 F7200 X96.700 Y148.884
G1 F1200 X95.194 Y147.379 E581.86680
G0 F7200 X94.452 Y147.485
G1 F1200 X95.851 Y148.884 E582.17545
G0 F7200 X95.003 Y148.884
G1 F1200 X94.452 Y148.334 E582.29690
G0 F7200 X95.569 Y146.981
G0 X116.655 Y95.866
G1 F1200 X81.450 Y60.661 E590.06373
G0 F7200 X81.450 Y75.934
G1 F1200 X93.825 Y88.309 E592.79387
G0 F7200 X92.976 Y88.309
G1 F1200 X81.450 Y76.783 E595.33670
G0 F7200 X81.450 Y77.631
G1 F1200 X92.128 Y88.309 E597.69246
G0 F7200 X91.279 Y88.309
G1 F1200 X81.450 Y78.480 E599.86090
G0 F7200 X81.450 Y79.328
G1 F1200 X90.431 Y88.309 E601.84227
G0 F7200 X89.582 Y88.309
G1 F1200 X81.450 Y80.177 E603.63633
G0 F7200 X81.450 Y81.025
G1 F1200 X88.734 Y88.309 E605.24330
G0 F7200 X87.885 Y88.309
G1 F1200 X81.450 Y81.874 E606.66298
G0 F7200 X81.450 Y82.723
G1 F1200 X87.037 Y88.309 E607.89546
G0 F7200 X86.188 Y88.309
G1 F1200 X81.450 Y83.571 E608.94074
G0 F7200 X81.450 Y84.420
G1 F1200 X85.340 Y88.309 E609.79883
G0 F7200 X84.491 Y88.309
G1 F1200 X81.450 Y85.268 E610.46973
G0 F7200 X81.450 Y86.117
G1 F1200 X83.642 Y88.309 E610.95332
G0 F7200 X82.794 Y88.309
G1 F1200 X81.450 Y86.965 E611.24983
G0 F7200 X81.450 Y87.814
G1 F1200 X81.945 Y88.309 E611.35904
G0 F7200 X81.570 Y59.932
G1 F1200 X116.655 Y95.018 E619.09951
G0 F7200 X116.655 Y94.169
G1 F1200 X81.866 Y59.380 E626.77456
G0 F7200 X82.215 Y58.880
G1 F1200 X116.655 Y93.321 E634.37273
;LAYER:1
M106 S127
G0 F7200 X116.896 Y87.680 Z0.410
;TYPE:WALL-INNER
G1 F1500 X116.896 Y142.816 E639.33497
G1 X115.382 Y142.816 E639.47123
G1 X115.382 Y147.140 E639.86039
G1 X116.896 Y147.140 E639.99665
G1 X116.896 Y149.126 E640.17539
G1 X94.213 Y149.126 E642.21686
G1 X94.213 Y147.140 E642.39560
G1 X95.728 Y147.140 E642.53195
G1 X95.728 Y142.816 E642.92111
G1 X94.213 Y142.816 E643.05746
G1 X94.213 Y88.550 E647.94140
G1 X81.211 Y88.550 E649.11158
G1 X81.211 Y60.125 E651.66983
G1 X81.496 Y59.535 E651.72880
G1 X81.745 Y59.117 E651.77259
G1 X81.977 Y58.780 E651.80941
G1 X82.497 Y58.144 E651.88335
G1 X82.822 Y57.808 E651.92542
G1 X83.441 Y57.280 E651.99865
G1 X83.828 Y57.001 E652.04158
G1 X84.187 Y56.776 E652.07972
G1 X84.923 Y56.401 E652.15406
G1 X85.351 Y56.225 E652.19571
G1 X86.141 Y55.984 E652.27004
G1 X86.583 Y55.888 E652.31075
G1 X87.416 Y55.788 E652.38626
G1 X87.865 Y55.772 E652.42669
G1 X88.701 Y55.819 E652.50205
G1 X89.148 Y55.882 E652.54268
G1 X89.961 Y56.075 E652.61788
G1 X90.392 Y56.216 E652.65870
G1 X91.155 Y56.547 E652.73355
G1 X91.556 Y56.763 E652.77454
G1 X92.249 Y57.223 E652.84940
G1 X92.611 Y57.510 E652.89098
